svgs/solid/face-cowboy-hat.svg

<svg xmlns="http://www.w3.org/2000/svg" viewBox="0 0 512 512"><!--! Font Awesome Pro 6.1.1 by @fontawesome - https://fontawesome.com License - https://fontawesome.com/license (Commercial License) Copyright 2022 Fonticons, Inc. --><path d="M242.1 10.71C250.1 17.16 261.9 17.16 269.9 10.71C278.1 4.003 286.9 0 296 0C332.8 0 363.4 64.93 378.4 109.8C411.1 99.32 441.1 84.62 466.9 66.75C469.4 64.98 472.3 64 475.3 64C484.3 64 490.1 72.25 488.2 80.75C461.2 163.2 367.5 224 256 224C144.5 224 50.77 163.2 23.8 80.75C21.02 72.25 27.72 64 36.66 64C39.7 64 42.64 64.99 45.1 66.75C70.04 84.62 100 99.32 133.6 109.8C148.6 64.93 179.2 0 215.1 0C225.1 0 233.9 4.003 242.1 10.71H242.1zM48 303.1C48 266.1 58.12 230.6 75.81 200C124.6 235.4 188.3 255.1 256 255.1C323.7 255.1 387.4 235.4 436.2 200C453.9 230.6 464 266.1 464 303.1C464 418.9 370.9 512 256 512C141.1 512 48 418.9 48 303.1H48zM256.2 376.8C223.5 376.8 192.5 372.5 164.6 364.7C152.2 361.2 140.3 371.1 146 383.5C166.2 424.1 207.1 452 256.2 452C304.5 452 346.2 424.1 366.4 383.5C372.1 371.1 360.2 361.2 347.8 364.7C319.9 372.5 288.9 376.8 256.2 376.8zM192 279.1C178.7 279.1 168 290.7 168 303.1C168 317.3 178.7 328 192 328C205.3 328 216 317.3 216 303.1C216 290.7 205.3 279.1 192 279.1zM320 328C333.3 328 344 317.3 344 303.1C344 290.7 333.3 279.1 320 279.1C306.7 279.1 296 290.7 296 303.1C296 317.3 306.7 328 320 328z"/></svg>

<svg xmlns="http://www.w3.org/2000/svg" viewBox="0 0 512 512"><!--! Font Awesome Pro 6.4.2 by @fontawesome - https://fontawesome.com License - https://fontawesome.com/license (Commercial License) Copyright 2023 Fonticons, Inc. --><path d="M216 0c9.1 0 17.9 4 26.1 10.7c7.9 6.5 19.8 6.5 27.7 0C278.1 4 286.9 0 296 0c36.8 0 67.4 64.9 82.4 109.8C412 99.3 442 84.6 466.9 66.8c2.5-1.8 5.4-2.8 8.4-2.8c8.9 0 15.6 8.3 12.9 16.7C461.2 163.2 367.5 224 256 224S50.8 163.2 23.8 80.7C21 72.3 27.7 64 36.7 64c3 0 6 1 8.4 2.8C70 84.6 100 99.3 133.6 109.8C148.6 64.9 179.2 0 216 0zM48 304c0-37.9 10.1-73.4 27.8-104c48.8 35.3 112.5 56 180.2 56s131.4-20.6 180.2-56c17.7 30.6 27.8 66.1 27.8 104c0 114.9-93.1 208-208 208S48 418.9 48 304zm299.8 60.7c-27.9 7.8-59 12.1-91.6 12.1s-63.7-4.3-91.6-12.1c-12.4-3.5-24.3 7.3-18.6 18.8C166.2 424.1 208 452 256.2 452s90-27.9 110.2-68.6c5.7-11.5-6.2-22.2-18.6-18.8zM216 304a24 24 0 1 0 -48 0 24 24 0 1 0 48 0zm104 24a24 24 0 1 0 0-48 24 24 0 1 0 0 48z"/></svg>
